src/images/icons/email.svg

<svg width="32" height="32" viewBox="0 0 32 32" fill="currentColor" xmlns="http://www.w3.org/2000/svg">
<path d="M27.003 5H5.667C4.20015 5 3.01333 6.20015 3.01333 7.667L3 23.669C3 25.1359 4.20015 26.336 5.667 26.336H27.003C28.4699 26.336 29.67 25.1359 29.67 23.669V7.667C29.67 6.20015 28.4699 5 27.003 5ZM27.003 23.669H5.667V10.334L16.335 17.0015L27.003 10.334V23.669ZM16.335 14.3345L5.667 7.667H27.003L16.335 14.3345Z"/>
</svg>

<svg xmlns="http://www.w3.org/2000/svg" width="32" height="32" fill="currentColor" viewBox="0 0 32 32">
  <path d="M27.003 5H5.667a2.663 2.663 0 0 0-2.654 2.667L3 23.669c0 1.467 1.2 2.667 2.667 2.667h21.336c1.467 0 2.667-1.2 2.667-2.667V7.667C29.67 6.2 28.47 5 27.003 5Zm0 18.669H5.667V10.334l10.668 6.668 10.668-6.668v13.335Zm-10.668-9.335L5.667 7.668h21.336l-10.668 6.668Z"/>
</svg>
